assets/img/icons/duotone-icons/Electric/Gas-stove.svg

<?xml version="1.0" encoding="UTF-8"?>
<svg width="24px" height="24px" viewBox="0 0 24 24" version="1.1" xmlns="http://www.w3.org/2000/svg" xmlns:xlink="http://www.w3.org/1999/xlink">
    <!-- Generator: Sketch 52.2 (67145) - http://www.bohemiancoding.com/sketch -->
    <title>Stockholm-icons / Electric / Gas-stove</title>
    <desc>Created with Sketch.</desc>
    <g id="Stockholm-icons-/-Electric-/-Gas-stove" stroke="none" stroke-width="1" fill="none" fill-rule="evenodd">
        <rect id="bound" x="0" y="0" width="24" height="24"></rect>
        <path d="M21,10 L3,10 L3,5 C3,4.44771525 3.44771525,4 4,4 L20,4 C20.5522847,4 21,4.44771525 21,5 L21,10 Z M16,6 C15.4477153,6 15,6.44771525 15,7 C15,7.55228475 15.4477153,8 16,8 C16.5522847,8 17,7.55228475 17,7 C17,6.44771525 16.5522847,6 16,6 Z M8,6 C8.55228475,6 9,6.44771525 9,7 C9,7.55228475 8.55228475,8 8,8 C7.44771525,8 7,7.55228475 7,7 C7,6.44771525 7.44771525,6 8,6 Z M21,11 L21,21 C21,21.5522847 20.5522847,22 20,22 L4,22 C3.44771525,22 3,21.5522847 3,21 L3,11 L21,11 Z M8,13 C7.44771525,13 7,13.5223345 7,14.1666667 L7,18.8333333 C7,19.4776655 7.44771525,20 8,20 L16,20 C16.5522847,20 17,19.4776655 17,18.8333333 L17,14.1666667 C17,13.5223345 16.5522847,13 16,13 L8,13 Z" id="Combined-Shape" fill="#335EEA"></path>
        <path d="M6,3 L10,3 C10.5522847,3 11,3.44771525 11,4 L5,4 C5,3.44771525 5.44771525,3 6,3 Z M16,3 L18,3 C18.5522847,3 19,3.44771525 19,4 L15,4 C15,3.44771525 15.4477153,3 16,3 Z" id="Combined-Shape" fill="#335EEA" opacity="0.3"></path>
    </g>
</svg>

<svg width="24" height="24" viewBox="0 0 24 24" xmlns="http://www.w3.org/2000/svg"><g fill="none" fill-rule="evenodd"><path d="M0 0h24v24H0z"/><path d="M21 10H3V5a1 1 0 011-1h16a1 1 0 011 1v5zm-5-4a1 1 0 100 2 1 1 0 000-2zM8 6a1 1 0 110 2 1 1 0 010-2zm13 5v10a1 1 0 01-1 1H4a1 1 0 01-1-1V11h18zM8 13c-.552 0-1 .522-1 1.167v4.666C7 19.478 7.448 20 8 20h8c.552 0 1-.522 1-1.167v-4.666c0-.645-.448-1.167-1-1.167H8z" fill="#335EEA"/><path d="M6 3h4a1 1 0 011 1H5a1 1 0 011-1zm10 0h2a1 1 0 011 1h-4a1 1 0 011-1z" fill="#335EEA" opacity=".3"/></g></svg>
